X:342
T: Haojiu meidao zhetiao po
N: C1231
O: China,Hunan, Xiangxi
S: MM,]
N: Noten kopiert. Von der Platte nur B-Seite, da A lediglich
N: revolutionaere Lieder enthaelt.
N: Vereinzelt Verzierungen.
N: T.8 bzw.17, letzte Note unleserlich. Vgl. T.21!
R: Shange. Xin minge]
M: 2/4
L: 1/16
K: C
d3cd2c2 | cA3d4 | decde2d2 | ccccd3e | cdcAA4 |
d2Acd2cA | G3Ac3d | g2dedcA2 | G2A2G4 |
d3cd2c2 | cA3d4 | decde2d2 | ccccd3e | cdcAA4 |
d2Acd2cA | G3Ac3d | g2dedcA2 | G2A2G4 |
e2decdcA | G3Ac4 | g4a4 | g8- | g8

@@@ Tune index: 6343
